X: 3
T: Polska efter Lissmyr Erik Persson
O: v\"astra Dalarna
R: polska, springlek
S: https://spillefolk.dk/nodesamling/visnode.php?key=po-lissmyrerik3
M: 3/4
L: 1/8
K: Dm
   A | A>a  a<a g>a | f>f e<d e>f | e<^c Ac  d>e |1,3 (3fdf e<^c A2 :|2,4 (3fe^c d3 :|
|: A | d>^c A>c d>e | f>f e<d e>f | e>^c A>c d>e |1,3 (3fdf e<^c A2 :|2,4 (3fe^c d3 :|
